qtOfs/res/icons/objects.svg

<svg width="40" xmlns="http://www.w3.org/2000/svg" height="40" viewBox="0 0 32 32">
<path opacity=".51" fill="#22231d" d="m17.09,2.27c4.97-.15 9.95-.41 14.91-.05v27.2c-10.47,.35-20.99,.57-31.45-.12 1.19-.12 2.38-.22 3.57-.31 1.7-.06 3.41-.07 5.11-.05 2.45,.12 4.92,.27 7.37-.02l.03-.35c.1-1.34 .18-2.68 .24-4.02 .05-1.41 .08-2.83 .08-4.25-.65-2.4-1.72-4.65-2.87-6.84 .93,1.45 1.93,2.86 2.91,4.27 .04-5.15 0-10.31 .1-15.46m.45,.59c.15,5.11-.01,10.22 .1,15.32-.96,3.53-.66,7.22-.74,10.83l.95-.07c1.44,.04 2.88,.08 4.31,.12 2.94-.09 5.87-.05 8.8,0-.01-.74-.01-2.23-.02-2.97-.14-7.6 .49-15.29-.3-22.83l-.4-.08c-1.59-.12-3.2-.21-4.81-.27-2.63,.02-5.26-.04-7.89-.05z"/>
<path fill="#ff9000" d="m17.54,2.86c2.63,.01 5.26,.07 7.89,.05-.01,1.98-.03,3.96-.05,5.94-.02,1.29-.02,2.59 0,3.89-.01,3.43-.12,6.86-.21,10.29-2.66,.77-5.11,2.12-7.18,3.96 .08-2.94-.15-5.88-.35-8.81-.11-5.1 .05-10.21-.1-15.32z"/>
<path fill="#fff8ef" d="m25.43,2.91c1.61,.06 3.22,.15 4.81,.27-.04,1.37-.08,2.75-.1,4.12-1.59,.52-3.17,1.04-4.76,1.55 .02-1.98 .04-3.96 .05-5.94z"/>
<path fill="#f8a539" d="m30.24,3.18l.4,.08c.79,7.54 .16,15.23 .3,22.83-.28-.13-.84-.39-1.12-.51-.02-1.56-.02-3.11 .01-4.66 .04-1.46 .07-2.93 .1-4.4 .1-3.07 .15-6.14 .21-9.22 .02-1.37 .06-2.75 .1-4.12z"/>
<path fill="#ffd8a5" d="m25.38,8.85c1.59-.51 3.17-1.03 4.76-1.55-.06,3.08-.11,6.15-.21,9.22-1.42,.01-2.85,.02-4.28,.04-.11-1.27-.2-2.54-.27-3.82-.02-1.3-.02-2.6 0-3.89z"/>
<path fill="#0076ff" d="m.55,29.3c3.89-6.55 7.23-13.41 11.27-19.87 .75,1.34 1.5,2.69 2.26,4.03 1.15,2.19 2.22,4.44 2.87,6.84-2.34-.16-4.68-.33-7.02-.52 .95-3.15 1.6-6.38 1.92-9.65-2.87,4.43-4.47,9.5-6.5,14.35-.48,1.48-.84,3-1.23,4.51-1.19,.09-2.38,.19-3.57,.31z"/>
<path fill="#6fbcfe" d="m5.35,24.48c2.03-4.85 3.63-9.92 6.5-14.35-.32,3.27-.97,6.5-1.92,9.65-.2,.7-.61,2.09-.81,2.79-.2,.7-.41,1.39-.61,2.09-1.05-.06-2.11-.12-3.16-.18z"/>
<path fill="#ffbc48" d="m25.17,23.03c.09-3.43 .2-6.86 .21-10.29 .07,1.28 .16,2.55 .27,3.82 .14,1.29 .28,2.58 .43,3.87 1.25,.16 2.5,.33 3.75,.49-.03,1.55-.03,3.1-.01,4.66-1.63-.7-3.18-1.56-4.65-2.55z"/>
<path fill="#ffc170" d="m25.65,16.56c1.43-.02 2.86-.03 4.28-.04-.03,1.47-.06,2.94-.1,4.4-1.25-.16-2.5-.33-3.75-.49-.15-1.29-.29-2.58-.43-3.87z"/>
<path fill="#a47c36" d="m16.9,29.01c.08-3.61-.22-7.3 .74-10.83 .2,2.93 .43,5.87 .35,8.81-.03,.49-.1,1.46-.14,1.95l-.95,.07z"/>
<path fill="#00a0ff" d="m9.93,19.78c2.34,.19 4.68,.36 7.02,.52 0,1.42-.03,2.84-.08,4.25-2.66-.32-5.37-.65-7.75-1.98 .2-.7 .61-2.09 .81-2.79z"/>
<path fill="#00bdff" d="m8.51,24.66c.2-.7 .41-1.39 .61-2.09 2.38,1.33 5.09,1.66 7.75,1.98-.06,1.34-.14,2.68-.24,4.02-2.36-1.09-5.24-1.24-7.4,.37-1.7-.02-3.41-.01-5.11,.05 .39-1.51 .75-3.03 1.23-4.51 1.05,.06 2.11,.12 3.16,.18z"/>
<path fill="#ffb600" d="m17.99,26.99c2.07-1.84 4.52-3.19 7.18-3.96-.01,2.45-1.1,4.53-3.01,6.03-1.43-.04-2.87-.08-4.31-.12 .04-.49 .11-1.46 .14-1.95z"/>
<path fill="#ffce1a" d="m25.17,23.03c1.47,.99 3.02,1.85 4.65,2.55 .28,.12 .84,.38 1.12,.51 .01,.74 .01,2.23 .02,2.97-2.93-.05-5.86-.09-8.8,0 1.91-1.5 3-3.58 3.01-6.03z"/>
<path fill="#2ad2fb" d="m9.23,28.94c2.16-1.61 5.04-1.46 7.4-.37l-.03,.35c-2.45,.29-4.92,.14-7.37,.02z"/>
</svg>

<?xml version="1.0" encoding="UTF-8" standalone="no"?>
<!-- Created with Inkscape (http://www.inkscape.org/) -->
<svg
   xmlns:svg="http://www.w3.org/2000/svg"
   xmlns="http://www.w3.org/2000/svg"
   version="1.0"
   width="32pt"
   height="32pt"
   viewBox="0 0 32 32"
   id="svg2">
  <defs
     id="defs50" />
  <g
     id="#22231d83">
    <path
       d="M 17.09,2.27 C 22.06,2.12 27.04,1.86 32,2.22 L 32,29.42 C 21.53,29.77 11.01,29.99 0.55,29.3 C 1.74,29.18 2.93,29.08 4.12,28.99 C 5.82,28.93 7.53,28.92 9.23,28.94 C 11.68,29.06 14.15,29.21 16.6,28.92 L 16.63,28.57 C 16.73,27.23 16.81,25.89 16.87,24.55 C 16.92,23.14 16.95,21.72 16.95,20.3 C 16.3,17.9 15.23,15.65 14.08,13.46 C 15.01,14.91 16.01,16.32 16.99,17.73 C 17.03,12.58 16.99,7.42 17.09,2.27 M 17.54,2.86 C 17.69,7.97 17.53,13.08 17.64,18.18 C 16.68,21.71 16.98,25.4 16.9,29.01 L 17.85,28.94 C 19.29,28.98 20.73,29.02 22.16,29.06 C 25.1,28.97 28.03,29.01 30.96,29.06 C 30.95,28.32 30.95,26.83 30.94,26.09 C 30.8,18.49 31.43,10.8 30.64,3.26 L 30.24,3.18 C 28.65,3.06 27.04,2.97 25.43,2.91 C 22.8,2.93 20.17,2.87 17.54,2.86 z"
       id="path5"
       style="opacity:0.51000001;fill:#22231d" />
  </g>
  <g
     id="#ff9000ff">
    <path
       d="M 17.54,2.86 C 20.17,2.87 22.8,2.93 25.43,2.91 C 25.42,4.89 25.4,6.87 25.38,8.85 C 25.36,10.14 25.36,11.44 25.38,12.74 C 25.37,16.17 25.26,19.6 25.17,23.03 C 22.51,23.8 20.06,25.15 17.99,26.99 C 18.07,24.05 17.84,21.11 17.64,18.18 C 17.53,13.08 17.69,7.97 17.54,2.86 z"
       id="path8"
       style="opacity:1;fill:#ff9000" />
  </g>
  <g
     id="#fff8efff">
    <path
       d="M 25.43,2.91 C 27.04,2.97 28.65,3.06 30.24,3.18 C 30.2,4.55 30.16,5.93 30.14,7.3 C 28.55,7.82 26.97,8.34 25.38,8.85 C 25.4,6.87 25.42,4.89 25.43,2.91 z"
       id="path11"
       style="opacity:1;fill:#fff8ef" />
  </g>
  <g
     id="#f8a539ff">
    <path
       d="M 30.24,3.18 L 30.64,3.26 C 31.43,10.8 30.8,18.49 30.94,26.09 C 30.66,25.96 30.1,25.7 29.82,25.58 C 29.8,24.02 29.8,22.47 29.83,20.92 C 29.87,19.46 29.9,17.99 29.93,16.52 C 30.03,13.45 30.08,10.38 30.14,7.3 C 30.16,5.93 30.2,4.55 30.24,3.18 z"
       id="path14"
       style="opacity:1;fill:#f8a539" />
  </g>
  <g
     id="#ffd8a5ff">
    <path
       d="M 25.38,8.85 C 26.97,8.34 28.55,7.82 30.14,7.3 C 30.08,10.38 30.03,13.45 29.93,16.52 C 28.51,16.53 27.08,16.54 25.65,16.56 C 25.54,15.29 25.45,14.02 25.38,12.74 C 25.36,11.44 25.36,10.14 25.38,8.85 z"
       id="path17"
       style="opacity:1;fill:#ffd8a5" />
  </g>
  <g
     id="#0076ffff">
    <path
       d="M 0.55,29.3 C 4.44,22.75 7.78,15.89 11.82,9.43 C 12.57,10.77 13.32,12.12 14.08,13.46 C 15.23,15.65 16.3,17.9 16.95,20.3 C 14.61,20.14 12.27,19.97 9.93,19.78 C 10.88,16.63 11.53,13.4 11.85,10.13 C 8.98,14.56 7.38,19.63 5.35,24.48 C 4.87,25.96 4.51,27.48 4.12,28.99 C 2.93,29.08 1.74,29.18 0.55,29.3 z"
       id="path20"
       style="opacity:1;fill:#0076ff" />
  </g>
  <g
     id="#6fbcfeff">
    <path
       d="M 5.35,24.48 C 7.38,19.63 8.98,14.56 11.85,10.13 C 11.53,13.4 10.88,16.63 9.93,19.78 C 9.73,20.48 9.32,21.87 9.12,22.57 C 8.92,23.27 8.71,23.96 8.51,24.66 C 7.46,24.6 6.4,24.54 5.35,24.48 z"
       id="path23"
       style="opacity:1;fill:#6fbcfe" />
  </g>
  <g
     id="#ffbc48ff">
    <path
       d="M 25.17,23.03 C 25.26,19.6 25.37,16.17 25.38,12.74 C 25.45,14.02 25.54,15.29 25.65,16.56 C 25.79,17.85 25.93,19.14 26.08,20.43 C 27.33,20.59 28.58,20.76 29.83,20.92 C 29.8,22.47 29.8,24.02 29.82,25.58 C 28.19,24.88 26.64,24.02 25.17,23.03 z"
       id="path26"
       style="opacity:1;fill:#ffbc48" />
  </g>
  <g
     id="#ffc170ff">
    <path
       d="M 25.65,16.56 C 27.08,16.54 28.51,16.53 29.93,16.52 C 29.9,17.99 29.87,19.46 29.83,20.92 C 28.58,20.76 27.33,20.59 26.08,20.43 C 25.93,19.14 25.79,17.85 25.65,16.56 z"
       id="path29"
       style="opacity:1;fill:#ffc170" />
  </g>
  <g
     id="#a47c36ff">
    <path
       d="M 16.9,29.01 C 16.98,25.4 16.68,21.71 17.64,18.18 C 17.84,21.11 18.07,24.05 17.99,26.99 C 17.96,27.48 17.89,28.45 17.85,28.94 L 16.9,29.01 z"
       id="path32"
       style="opacity:1;fill:#a47c36" />
  </g>
  <g
     id="#00a0ffff">
    <path
       d="M 9.93,19.78 C 12.27,19.97 14.61,20.14 16.95,20.3 C 16.95,21.72 16.92,23.14 16.87,24.55 C 14.21,24.23 11.5,23.9 9.12,22.57 C 9.32,21.87 9.73,20.48 9.93,19.78 z"
       id="path35"
       style="opacity:1;fill:#00a0ff" />
  </g>
  <g
     id="#00bdffff">
    <path
       d="M 8.51,24.66 C 8.71,23.96 8.92,23.27 9.12,22.57 C 11.5,23.9 14.21,24.23 16.87,24.55 C 16.81,25.89 16.73,27.23 16.63,28.57 C 14.27,27.48 11.39,27.33 9.23,28.94 C 7.53,28.92 5.82,28.93 4.12,28.99 C 4.51,27.48 4.87,25.96 5.35,24.48 C 6.4,24.54 7.46,24.6 8.51,24.66 z"
       id="path38"
       style="opacity:1;fill:#00bdff" />
  </g>
  <g
     id="#ffb600ff">
    <path
       d="M 17.99,26.99 C 20.06,25.15 22.51,23.8 25.17,23.03 C 25.16,25.48 24.07,27.56 22.16,29.06 C 20.73,29.02 19.29,28.98 17.85,28.94 C 17.89,28.45 17.96,27.48 17.99,26.99 z"
       id="path41"
       style="opacity:1;fill:#ffb600" />
  </g>
  <g
     id="#ffce1aff">
    <path
       d="M 25.17,23.03 C 26.64,24.02 28.19,24.88 29.82,25.58 C 30.1,25.7 30.66,25.96 30.94,26.09 C 30.95,26.83 30.95,28.32 30.96,29.06 C 28.03,29.01 25.1,28.97 22.16,29.06 C 24.07,27.56 25.16,25.48 25.17,23.03 z"
       id="path44"
       style="opacity:1;fill:#ffce1a" />
  </g>
  <g
     id="#2ad2fbff">
    <path
       d="M 9.23,28.94 C 11.39,27.33 14.27,27.48 16.63,28.57 L 16.6,28.92 C 14.15,29.21 11.68,29.06 9.23,28.94 z"
       id="path47"
       style="opacity:1;fill:#2ad2fb" />
  </g>
</svg>
